Flat-Remix-Dark/apps/scalable/xonotic.svg

<svg xmlns="http://www.w3.org/2000/svg" xmlns:xlink="http://www.w3.org/1999/xlink" width="384pt" height="384pt" version="1.1" viewBox="0 0 384 384">
 <defs>
  <filter id="alpha" width="100%" height="100%" x="0%" y="0%" filterUnits="objectBoundingBox">
   <feColorMatrix in="SourceGraphic" type="matrix" values="0 0 0 0 1 0 0 0 0 1 0 0 0 0 1 0 0 0 1 0"/>
  </filter>
  <mask id="mask0">
   <g filter="url(#alpha)">
    <rect style="fill:rgb(0%,0%,0%);fill-opacity:0.2" width="384" height="384" x="0" y="0"/>
   </g>
  </mask>
  <clipPath id="clip1">
   <rect width="384" height="384" x="0" y="0"/>
  </clipPath>
  <g id="surface5" clip-path="url(#clip1)">
   <path d="M 254.113281 126.367188 C 248.296875 126.667969 241.839844 128.015625 234.585938 130.140625 L 228.308594 126.300781 L 108.285156 198.316406 C 126.589844 191.296875 141.890625 187.976562 151.277344 187.203125 L 120.285156 222.324219 L 144.363281 209.132812 C 134.496094 236.609375 122.890625 262.378906 96.28125 274.140625 C 96.132812 274.484375 96.125 274.886719 96 275.242188 C 116.261719 297.933594 143.710938 314 174.953125 318.355469 L 192.058594 342 L 192.714844 341.8125 L 209.640625 318.347656 C 242.582031 313.753906 271.386719 296.226562 291.898438 271.554688 C 290.835938 271.339844 289.75 271.136719 288.3125 271.179688 C 250.410156 271.5 219.953125 265.335938 216.296875 223.941406 C 215.308594 218.699219 214.476562 184.96875 270.308594 168.3125 C 264.675781 164.6875 245.949219 164.4375 232.613281 164.394531 C 232.035156 159.460938 233.234375 140.691406 276.3125 138.304688 C 269.550781 131.792969 263.8125 125.867188 254.109375 126.371094 Z M 218.132812 140.949219 C 220.890625 142.066406 221.246094 143.75 221.742188 145.566406 C 216.929688 146.496094 210.148438 148.667969 208.261719 146.203125 C 207.398438 145.351562 213.292969 142.214844 218.179688 141.019531 Z M 218.132812 140.949219" style="fill:rgb(0%,0%,0%)"/>
  </g>
  <mask id="mask1">
   <g filter="url(#alpha)">
    <rect style="fill:rgb(0%,0%,0%);fill-opacity:0.2" width="384" height="384" x="0" y="0"/>
   </g>
  </mask>
  <clipPath id="clip2">
   <rect width="384" height="384" x="0" y="0"/>
  </clipPath>
  <g id="surface8" clip-path="url(#clip2)">
   <path d="M 126.371094 66.039062 C 73.015625 90 36 142.25 36 202.957031 C 36 286.367188 105.847656 354 192.011719 354 C 278.160156 354 348 286.355469 348 202.957031 C 348 142.996094 311.878906 91.257812 259.597656 66.988281 L 257.964844 68.554688 C 299.246094 90.988281 324.003906 133.671875 324.003906 182.773438 C 324.003906 248.714844 274.789062 308.878906 209.332031 318 L 192.015625 342 L 174.675781 318 C 109.21875 308.878906 60.003906 248.714844 60.003906 182.773438 C 60.003906 133.160156 85.371094 90.125 127.339844 67.894531 C 127.058594 67.300781 126.652344 66.636719 126.363281 66.003906" style="fill:rgb(0%,0%,0%)"/>
  </g>
  <mask id="mask2">
   <g filter="url(#alpha)">
    <rect style="fill:rgb(0%,0%,0%);fill-opacity:0.101961" width="384" height="384" x="0" y="0"/>
   </g>
  </mask>
  <clipPath id="clip3">
   <rect width="384" height="384" x="0" y="0"/>
  </clipPath>
  <g id="surface11" clip-path="url(#clip3)">
   <path d="M 192 24 C 98.929688 24 24 98.964844 24 192.082031 C 24 192.765625 24.066406 193.429688 24.105469 194.101562 C 26.214844 102.84375 100.265625 30.003906 192 30.003906 C 283.734375 30.003906 357.785156 102.84375 359.894531 194.101562 C 359.933594 193.429688 360 192.765625 360 192.082031 C 360 98.964844 285.070312 24 192 24 Z M 192 24" style="fill:rgb(100%,100%,100%)"/>
  </g>
 </defs>
 <g>
  <path d="M 360 192 C 360 99.214844 284.785156 24 192 24 C 99.214844 24 24 99.214844 24 192 C 24 284.785156 99.214844 360 192 360 C 284.785156 360 360 284.785156 360 192 Z M 360 192" style="fill:rgb(29.803922%,29.803922%,29.803922%)"/>
  <use mask="url(#mask0)" xlink:href="#surface5"/>
  <path d="M 254.117188 120.367188 C 248.296875 120.667969 241.84375 122.015625 234.589844 124.140625 L 228.3125 120.300781 L 108.285156 192.316406 C 126.589844 185.296875 141.894531 181.976562 151.277344 181.207031 L 120.285156 216.328125 L 144.363281 203.125 C 134.5 230.609375 122.890625 256.378906 96.28125 268.132812 C 96.132812 268.476562 96.125 268.878906 96 269.234375 C 116.261719 291.921875 143.710938 307.992188 174.957031 312.34375 L 192.070312 336 L 192.726562 335.8125 L 209.636719 312.347656 C 242.582031 307.753906 271.386719 290.226562 291.898438 265.554688 C 290.84375 265.339844 289.761719 265.132812 288.324219 265.171875 C 250.417969 265.492188 219.964844 259.335938 216.304688 217.9375 C 215.320312 212.691406 214.480469 178.964844 270.320312 162.304688 C 264.691406 158.679688 245.953125 158.425781 232.617188 158.390625 C 232.042969 153.457031 233.242188 134.683594 276.320312 132.296875 C 269.5625 125.792969 263.824219 119.859375 254.113281 120.367188 Z M 218.132812 134.949219 C 220.894531 136.0625 221.25 137.75 221.746094 139.566406 C 216.929688 140.496094 210.148438 142.667969 208.265625 140.199219 C 207.402344 139.351562 213.292969 136.210938 218.183594 135.019531 Z M 218.132812 134.949219" style="fill:rgb(96.470588%,27.843137%,27.843137%)"/>
  <use mask="url(#mask1)" xlink:href="#surface8"/>
  <path style="opacity:0.3" d="m 431.96484,233.14648 c -1.68597,86.55855 -66.72047,164.85691 -152.85546,176.85938 l -23.0879,32 -23.12109,-32 C 146.78028,398.00547 81.752495,319.73214 80.044922,233.19141 c -0.0109,0.83787 -0.03906,1.67097 -0.03906,2.51171 0,87.91669 65.618488,168.14127 152.894528,180.30274 l 23.12109,32 23.0879,-32 c 87.27603,-12.16147 152.89648,-92.38606 152.89648,-180.30274 0,-0.85568 -0.0298,-1.70392 -0.041,-2.55664 z" transform="scale(0.75)"/>
  <use mask="url(#mask2)" xlink:href="#surface11"/>
 </g>
 <path d="M 126.37109,60.042974 C 73.015628,84.003904 36.000004,136.25001 36.000004,196.96094 c 0,83.41014 69.847666,151.04297 156.011716,151.04297 C 278.16017,348.00391 348,280.35937 348,196.96094 348,136.99609 311.87892,85.261714 259.59767,60.992184 l -1.63283,1.56641 c 41.28125,22.43359 66.03907,65.113286 66.03907,114.218746 0,65.9375 -49.21484,126.10547 -114.67187,135.22657 l -17.31641,24 -17.33984,-24 C 109.21876,302.88281 60.003909,242.71484 60.003909,176.77734 c 0,-49.61328 25.367188,-92.652336 67.335941,-114.878906 -0.28125,-0.59375 -0.68751,-1.25781 -0.97657,-1.89453" style="fill:#357af0"/>
 <path d="M 32.0625 251 C 32.026062 252.66306 32 254.3282 32 256 C 32 379.71355 132.28646 480 256 480 C 379.71355 480 480 379.71356 480 256 C 480 254.3282 479.97394 252.66306 479.9375 251 C 477.27753 372.40329 378.04174 470 256 470 C 133.95828 470 34.722471 372.40327 32.0625 251 z" transform="scale(0.75)"/>
</svg>

<svg xmlns="http://www.w3.org/2000/svg" xmlns:xlink="http://www.w3.org/1999/xlink" width="384pt" height="384pt" version="1.1" viewBox="0 0 384 384">
 <defs>
  <filter id="alpha" width="100%" height="100%" x="0%" y="0%" filterUnits="objectBoundingBox">
   <feColorMatrix in="SourceGraphic" type="matrix" values="0 0 0 0 1 0 0 0 0 1 0 0 0 0 1 0 0 0 1 0"/>
  </filter>
  <mask id="mask0">
   <g filter="url(#alpha)">
    <rect style="fill:rgb(0%,0%,0%);fill-opacity:0.2" width="384" height="384" x="0" y="0"/>
   </g>
  </mask>
  <clipPath id="clip1">
   <rect width="384" height="384" x="0" y="0"/>
  </clipPath>
  <g id="surface5" clip-path="url(#clip1)">
   <path d="M 254.113281 126.367188 C 248.296875 126.667969 241.839844 128.015625 234.585938 130.140625 L 228.308594 126.300781 L 108.285156 198.316406 C 126.589844 191.296875 141.890625 187.976562 151.277344 187.203125 L 120.285156 222.324219 L 144.363281 209.132812 C 134.496094 236.609375 122.890625 262.378906 96.28125 274.140625 C 96.132812 274.484375 96.125 274.886719 96 275.242188 C 116.261719 297.933594 143.710938 314 174.953125 318.355469 L 192.058594 342 L 192.714844 341.8125 L 209.640625 318.347656 C 242.582031 313.753906 271.386719 296.226562 291.898438 271.554688 C 290.835938 271.339844 289.75 271.136719 288.3125 271.179688 C 250.410156 271.5 219.953125 265.335938 216.296875 223.941406 C 215.308594 218.699219 214.476562 184.96875 270.308594 168.3125 C 264.675781 164.6875 245.949219 164.4375 232.613281 164.394531 C 232.035156 159.460938 233.234375 140.691406 276.3125 138.304688 C 269.550781 131.792969 263.8125 125.867188 254.109375 126.371094 Z M 218.132812 140.949219 C 220.890625 142.066406 221.246094 143.75 221.742188 145.566406 C 216.929688 146.496094 210.148438 148.667969 208.261719 146.203125 C 207.398438 145.351562 213.292969 142.214844 218.179688 141.019531 Z M 218.132812 140.949219" style="fill:rgb(0%,0%,0%)"/>
  </g>
  <mask id="mask1">
   <g filter="url(#alpha)">
    <rect style="fill:rgb(0%,0%,0%);fill-opacity:0.2" width="384" height="384" x="0" y="0"/>
   </g>
  </mask>
  <clipPath id="clip2">
   <rect width="384" height="384" x="0" y="0"/>
  </clipPath>
  <g id="surface8" clip-path="url(#clip2)">
   <path d="M 126.371094 66.039062 C 73.015625 90 36 142.25 36 202.957031 C 36 286.367188 105.847656 354 192.011719 354 C 278.160156 354 348 286.355469 348 202.957031 C 348 142.996094 311.878906 91.257812 259.597656 66.988281 L 257.964844 68.554688 C 299.246094 90.988281 324.003906 133.671875 324.003906 182.773438 C 324.003906 248.714844 274.789062 308.878906 209.332031 318 L 192.015625 342 L 174.675781 318 C 109.21875 308.878906 60.003906 248.714844 60.003906 182.773438 C 60.003906 133.160156 85.371094 90.125 127.339844 67.894531 C 127.058594 67.300781 126.652344 66.636719 126.363281 66.003906" style="fill:rgb(0%,0%,0%)"/>
  </g>
  <mask id="mask2">
   <g filter="url(#alpha)">
    <rect style="fill:rgb(0%,0%,0%);fill-opacity:0.101961" width="384" height="384" x="0" y="0"/>
   </g>
  </mask>
  <clipPath id="clip3">
   <rect width="384" height="384" x="0" y="0"/>
  </clipPath>
  <g id="surface11" clip-path="url(#clip3)">
   <path d="M 192 24 C 98.929688 24 24 98.964844 24 192.082031 C 24 192.765625 24.066406 193.429688 24.105469 194.101562 C 26.214844 102.84375 100.265625 30.003906 192 30.003906 C 283.734375 30.003906 357.785156 102.84375 359.894531 194.101562 C 359.933594 193.429688 360 192.765625 360 192.082031 C 360 98.964844 285.070312 24 192 24 Z M 192 24" style="fill:rgb(100%,100%,100%)"/>
  </g>
 </defs>
 <g>
  <path d="M 360 192 C 360 99.214844 284.785156 24 192 24 C 99.214844 24 24 99.214844 24 192 C 24 284.785156 99.214844 360 192 360 C 284.785156 360 360 284.785156 360 192 Z M 360 192" style="fill:rgb(29.803922%,29.803922%,29.803922%)"/>
  <use mask="url(#mask0)" xlink:href="#surface5"/>
  <path d="M 254.117188 120.367188 C 248.296875 120.667969 241.84375 122.015625 234.589844 124.140625 L 228.3125 120.300781 L 108.285156 192.316406 C 126.589844 185.296875 141.894531 181.976562 151.277344 181.207031 L 120.285156 216.328125 L 144.363281 203.125 C 134.5 230.609375 122.890625 256.378906 96.28125 268.132812 C 96.132812 268.476562 96.125 268.878906 96 269.234375 C 116.261719 291.921875 143.710938 307.992188 174.957031 312.34375 L 192.070312 336 L 192.726562 335.8125 L 209.636719 312.347656 C 242.582031 307.753906 271.386719 290.226562 291.898438 265.554688 C 290.84375 265.339844 289.761719 265.132812 288.324219 265.171875 C 250.417969 265.492188 219.964844 259.335938 216.304688 217.9375 C 215.320312 212.691406 214.480469 178.964844 270.320312 162.304688 C 264.691406 158.679688 245.953125 158.425781 232.617188 158.390625 C 232.042969 153.457031 233.242188 134.683594 276.320312 132.296875 C 269.5625 125.792969 263.824219 119.859375 254.113281 120.367188 Z M 218.132812 134.949219 C 220.894531 136.0625 221.25 137.75 221.746094 139.566406 C 216.929688 140.496094 210.148438 142.667969 208.265625 140.199219 C 207.402344 139.351562 213.292969 136.210938 218.183594 135.019531 Z M 218.132812 134.949219" style="fill:rgb(96.470588%,27.843137%,27.843137%)"/>
  <use mask="url(#mask1)" xlink:href="#surface8"/>
  <path d="M 126.371094 60.042969 C 73.015625 84.003906 36 136.25 36 196.960938 C 36 280.371094 105.847656 348.003906 192.011719 348.003906 C 278.160156 348.003906 348 280.359375 348 196.960938 C 348 136.996094 311.878906 85.261719 259.597656 60.992188 L 257.964844 62.558594 C 299.246094 84.992188 324.003906 127.671875 324.003906 176.777344 C 324.003906 242.714844 274.789062 302.882812 209.332031 312.003906 L 192.015625 336.003906 L 174.675781 312.003906 C 109.21875 302.882812 60.003906 242.714844 60.003906 176.777344 C 60.003906 127.164062 85.371094 84.125 127.339844 61.898438 C 127.058594 61.304688 126.652344 60.640625 126.363281 60.003906" style="fill:#357af0"/>
  <use mask="url(#mask2)" xlink:href="#surface11"/>
 </g>
 <path d="M 32.0625 251 C 32.026062 252.66306 32 254.3282 32 256 C 32 379.71355 132.28646 480 256 480 C 379.71355 480 480 379.71356 480 256 C 480 254.3282 479.97394 252.66306 479.9375 251 C 477.27753 372.40329 378.04174 470 256 470 C 133.95828 470 34.722471 372.40327 32.0625 251 z" transform="scale(0.75)"/>
</svg>
